static/images/tree.svg

<svg height="209" width="179" xmlns="http://www.w3.org/2000/svg" xmlns:xlink="http://www.w3.org/1999/xlink"><mask id="a" fill="#fff"><path d="m0 .179h96.375v120.584h-96.375z" fill="none"/></mask><mask id="b" fill="#fff"><path d="m.954.33h77.903v51.403h-77.903z" fill="none"/></mask><mask id="c" fill="#fff"><path d="m.298.748h65.886v50.432h-65.886z" fill="none"/></mask><mask id="d" fill="#fff"><path d="m.458.317h54.252v115.683h-54.252z" fill="none"/></mask><g fill="none" fill-rule="evenodd"><path d="m48.187 60.471 41.12-25.1.004.004c-8.469-18.69-23.718-35.197-41.124-35.197-26.613 0-48.187 38.587-48.187 64.566 0 25.98 21.575 56.02 48.188 56.02s48.188-30.04 48.188-56.02c0-1.39-.066-2.818-.187-4.273h-48z" fill="#e1f3fd" mask="url(#a)" transform="translate(34 -.179)"/><path d="m82.187 173.5v-138.308m0 48.715 39.064 11.293m-39.064-23.696-46.422-20.918m46.422 43.949-35.76 5.605" stroke="#243746"/><path d="m.954 28.255 77.547-27.925s5.903 36.172-30.334 48.61c-36.237 12.437-47.213-20.685-47.213-20.685" fill="#e1f3fd" mask="url(#b)" transform="translate(100 78.141)"/><path d="m78.48 185.004 22.475-78.607 77.547-27.927m-21.942 7.902 19.11 15.467m-39.152-8.249 11.649 33.49m-23.727-29.142-2.115 30.272" stroke="#243746"/><path d="m41.316 48.498c-17.636 6.243-35.546 1.214-40.006-11.232-4.458-12.444 6.223-27.595 23.858-33.836 17.634-6.243 35.545-1.214 40.002 11.23 4.46 12.446-6.22 27.595-23.855 33.838" fill="#5ef288" mask="url(#c)" transform="matrix(-1 0 0 1 67 73)"/><path d="m.458 116v-92.89l54.252-22.793" mask="url(#d)" stroke="#243746" transform="matrix(-1 0 0 1 75 93)"/></g></svg>

<svg width="179" height="209" xmlns="http://www.w3.org/2000/svg" xmlns:xlink="http://www.w3.org/1999/xlink">
  <defs>
    <path id="a" d="M0 .179h96.375v120.584H0z"/>
    <path id="c" d="M.954.33h77.903v51.403H.954z"/>
    <path id="e" d="M.298.748h65.886V51.18H.298z"/>
    <path id="g" d="M.458.317H54.71V116H.458z"/>
  </defs>
  <g fill="none" fill-rule="evenodd">
    <g transform="translate(34 -.179)">
      <mask id="b" fill="#fff">
        <use xlink:href="#a"/>
      </mask>
      <path d="M48.187 60.471l41.12-25.1.004.004C80.842 16.685 65.593.178 48.187.178 21.574.178 0 38.765 0 64.744c0 25.98 21.575 56.02 48.188 56.02 26.613 0 48.188-30.04 48.188-56.02 0-1.39-.066-2.818-.187-4.273h-48z" fill="#E1F3FD" mask="url(#b)"/>
    </g>
    <path d="M82.187 173.5V35.192M82.187 83.907L121.251 95.2M82.187 71.504L35.765 50.586M82.187 94.535l-35.76 5.605" stroke="#243746"/>
    <g>
      <g transform="translate(100 78.141)">
        <mask id="d" fill="#fff">
          <use xlink:href="#c"/>
        </mask>
        <path d="M.954 28.255L78.501.33s5.903 36.172-30.334 48.61C11.93 61.377.954 28.255.954 28.255" fill="#E1F3FD" mask="url(#d)"/>
      </g>
      <path stroke="#243746" d="M78.48 185.004l22.475-78.607 77.547-27.927M156.56 86.372l19.11 15.467M136.518 93.59l11.649 33.49M124.44 97.938l-2.115 30.272"/>
    </g>
    <g>
      <g transform="matrix(-1 0 0 1 67 73)">
        <mask id="f" fill="#fff">
          <use xlink:href="#e"/>
        </mask>
        <path d="M41.316 48.498C23.68 54.741 5.77 49.712 1.31 37.266-3.148 24.822 7.533 9.671 25.168 3.43 42.802-2.813 60.713 2.216 65.17 14.66c4.46 12.446-6.22 27.595-23.855 33.838" fill="#5EF288" mask="url(#f)"/>
      </g>
      <g transform="matrix(-1 0 0 1 75 93)">
        <mask id="h" fill="#fff">
          <use xlink:href="#g"/>
        </mask>
        <path stroke="#243746" mask="url(#h)" d="M.458 116V23.11L54.71.317"/>
      </g>
    </g>
  </g>
</svg>
